X: 1
T: Zelda
Z:Giddily
M: 4/4
L: 1/8
Z:1/4=148
Q:1/4=120
K: F
B4 z3/2(3BBBB/2|B/2z_A/2 B2z B/2z(3BBBB/2|B/2z_A/2 B3zB/2(3BBBB/2|BF/2F/2 FF/2F/2 FF/2F/2 FF|
B2 F3zF/2B/2 B/2c/2d/2_e/2|f4 zf (3f_g_a|b4z b/2(3bbb_a_g/2|_a/2z_g/2 f4 f2|
_e_e/2f/2 _g4 f_e|_d_d/2_e/2 f4 _e_d|cc/2=d/2 =e4 =g2|fF/2F/2 FF/2F/2 FF/2F/2FF|
B2 F3zF/2B/2 B/2c/2d/2_e/2|f4 zf (3f_g_a|b6 _d2|zz =a4 f2|
_g4z _g/2z3/2 b2|az f4 f2|_g4 z2 b2|az f4 d2|
_e4 z2 _g2|fz _d4 B2|cc/2=d/2 =e4 =g2|fF/2F/2 FF/2F/2 FF/2F/2 FF|
B2 F3zF/2B/2 B/2c/2d/2_e/2|f4 zf (3f_g_a|b4z b/2(3bbb_a_g/2|_a/2z_g/2 f4 f2|
_e_e/2f/2 _g4 f_e|_d_d/2_e/2 f4 _e_d|cc/2=d/2 =e4 =g2|fF/2F/2 FF/2F/2 FF/2F/2FF|
